X: 040898
T: Dave Collins'
S: "First Collection of Traditional Irish Music" (M.Mulvihill)
C: Dave Collins
Z: B.Black
L: 1/8
M: 6/8
R: jig
K: D
A,|D2A, DFA|def edB|BAB dAG|FED EFE|
D2A, DFA|def edB|BAB dAF|EDC D2 :|
A|dcd ede|fed B/c/dB|BdB AFD|EDE FDA,|
D2A, DFA|def edB|BAB dAF|EDC D2 :|
